lib/brands/icons/gitlab.svg

<svg xmlns="http://www.w3.org/2000/svg" fill="none" aria-hidden="true" viewBox="0 0 48 48"><g id="gitlab-Icon"><g id="Group"><path id="Vector" fill="#E24329" d="M24.0002 40.5809L30.6288 20.1803H17.3716L24.0002 40.5809Z"/><path id="Vector_2" fill="#FC6D26" d="M24 40.5809L17.3714 20.1803H8.08154L24 40.5809Z"/><path id="Vector_3" fill="#FCA326" d="M8.08158 20.1803L6.06727 26.3799C5.88354 26.9453 6.08477 27.5648 6.56579 27.9142L24 40.5809L8.08158 20.1803Z"/><path id="Vector_4" fill="#E24329" d="M8.08154 20.1803H17.3714L13.3789 7.89324C13.1736 7.26091 12.2791 7.26108 12.0738 7.89324L8.08154 20.1803Z"/><path id="Vector_5" fill="#FC6D26" d="M24 40.5809L30.6286 20.1803H39.9184L24 40.5809Z"/><path id="Vector_6" fill="#FCA326" d="M39.9184 20.1803L41.9327 26.3799C42.1165 26.9453 41.9152 27.5648 41.4342 27.9142L24 40.5809L39.9184 20.1803Z"/><path id="Vector_7" fill="#E24329" d="M39.9182 20.1803H30.6284L34.6208 7.89324C34.8262 7.26091 35.7206 7.26108 35.926 7.89324L39.9182 20.1803Z"/></g></g></svg>

<svg xmlns="http://www.w3.org/2000/svg" fill="none" aria-hidden="true" viewBox="0 0 48 48"><path fill="#E24329" d="m24 40.58 6.628-20.4H17.371L24 40.58Z"/><path fill="#FC6D26" d="m24 40.58-6.629-20.4h-9.29L24 40.58Z"/><path fill="#FCA326" d="m8.082 20.18-2.015 6.2a1.372 1.372 0 0 0 .499 1.534L24 40.581 8.082 20.18Z"/><path fill="#E24329" d="M8.082 20.18h9.29L13.378 7.893c-.205-.632-1.1-.632-1.305 0L8.082 20.18Z"/><path fill="#FC6D26" d="m24 40.58 6.629-20.4h9.29L24 40.58Z"/><path fill="#FCA326" d="m39.918 20.18 2.015 6.2a1.372 1.372 0 0 1-.499 1.534L24 40.581l15.918-20.4Z"/><path fill="#E24329" d="M39.918 20.18h-9.29l3.993-12.287c.205-.632 1.1-.632 1.305 0l3.992 12.287Z"/></svg>
